X:10
T:Tomas Haards schottis
R:schottis
C:Tomas Haard
Z:i Stoten, track 4; 2000 Brian Wilson
M:2/4
L:1/8
K:D
P:A
|: d2 A2 B2 G2 | AG EG F2 D2
|  A^G Ac d3 f | ed cd e2 A2
|  d2 A2 B2 G2 | AG EG F2 D2
|  Ad fa ag ec | e2 dc d4 :|
P:B
|: f2 f2 ec Ac | dB GB B2 A2
|  AB AF G2 (E2 | A)(BA)G F2 D2
|  f2 f2 ec Ac | dB GB B2 A2
|  dc df ag ec | e2 dc d4 :|
